icons/svg/additional/mofa_yes.svg

<?xml version="1.0" encoding="UTF-8" standalone="no"?>
<!-- Created with Inkscape (http://www.inkscape.org/) -->

<svg
   xmlns:dc="http://purl.org/dc/elements/1.1/"
   xmlns:cc="http://creativecommons.org/ns#"
   xmlns:rdf="http://www.w3.org/1999/02/22-rdf-syntax-ns#"
   xmlns:svg="http://www.w3.org/2000/svg"
   xmlns="http://www.w3.org/2000/svg"
   xmlns:sodipodi="http://sodipodi.sourceforge.net/DTD/sodipodi-0.dtd"
   xmlns:inkscape="http://www.inkscape.org/namespaces/inkscape"
   version="1.0"
   width="580"
   height="580"
   id="svg2"
   sodipodi:version="0.32"
   inkscape:version="0.92.3 (2405546, 2018-03-11)"
   sodipodi:docname="mofa_yes.svg"
   inkscape:output_extension="org.inkscape.output.svg.inkscape">
  <metadata
     id="metadata2975">
    <rdf:RDF>
      <cc:Work
         rdf:about="">
        <dc:format>image/svg+xml</dc:format>
        <dc:type
           rdf:resource="http://purl.org/dc/dcmitype/StillImage" />
        <cc:license
           rdf:resource="http://web.resource.org/cc/PublicDomain" />
        <dc:language>en</dc:language>
      </cc:Work>
    </rdf:RDF>
  </metadata>
  <sodipodi:namedview
     inkscape:window-height="1006"
     inkscape:window-width="1920"
     inkscape:pageshadow="2"
     inkscape:pageopacity="0.0"
     guidetolerance="10.0"
     gridtolerance="10.0"
     objecttolerance="10.0"
     borderopacity="1.0"
     bordercolor="#666666"
     pagecolor="#ffffff"
     id="base"
     inkscape:zoom="0.92167715"
     inkscape:cx="155.8903"
     inkscape:cy="286.29511"
     inkscape:window-x="1920"
     inkscape:window-y="0"
     inkscape:current-layer="svg2"
     showgrid="false"
     inkscape:window-maximized="1" />
  <defs
     id="defs4">
    <inkscape:perspective
       sodipodi:type="inkscape:persp3d"
       inkscape:vp_x="0 : 290 : 1"
       inkscape:vp_y="0 : 1000 : 0"
       inkscape:vp_z="580 : 290 : 1"
       inkscape:persp3d-origin="290 : 193.33333 : 1"
       id="perspective2441" />
  </defs>
  <g
     id="g1327">
    <path
       d="M 66.275,1.768 C 24.94,1.768 1.704,23.139 1.704,66.804 L 1.704,516.927 C 1.704,557.771 22.599,579.156 63.896,579.156 L 515.92,579.156 C 557.227,579.156 578.149,558.841 578.149,516.927 L 578.149,66.804 C 578.149,24.203 557.227,1.768 514.628,1.768 C 514.624,1.768 66.133,1.625 66.275,1.768 z "
       style="fill:#111;stroke:#eee;stroke-width:3.40799999"
       id="path1329" />
  </g>
  <g
     id="g4372"
     transform="translate(-130.0802,122.26983)" />
  <path
     style="color:#000000;font-style:normal;font-variant:normal;font-weight:normal;font-stretch:normal;font-size:medium;line-height:normal;font-family:sans-serif;font-variant-ligatures:normal;font-variant-position:normal;font-variant-caps:normal;font-variant-numeric:normal;font-variant-alternates:normal;font-feature-settings:normal;text-indent:0;text-align:start;text-decoration:none;text-decoration-line:none;text-decoration-style:solid;text-decoration-color:#000000;letter-spacing:normal;word-spacing:normal;text-transform:none;writing-mode:lr-tb;direction:ltr;text-orientation:mixed;dominant-baseline:auto;baseline-shift:baseline;text-anchor:start;white-space:normal;shape-padding:0;clip-rule:nonzero;display:inline;overflow:visible;visibility:visible;opacity:1;isolation:auto;mix-blend-mode:normal;color-interpolation:sRGB;color-interpolation-filters:linearRGB;solid-color:#000000;solid-opacity:1;vector-effect:none;fill:#ffffff;fill-opacity:1;fill-rule:nonzero;stroke:none;stroke-width:29.43048477;stroke-linecap:round;stroke-linejoin:round;stroke-miterlimit:4;stroke-dasharray:none;stroke-dashoffset:0;stroke-opacity:1;color-rendering:auto;image-rendering:auto;shape-rendering:auto;text-rendering:auto;enable-background:accumulate"
     d="m 210.80486,149.20966 c -14.44977,1.0246 -25.51479,8.81951 -33.4036,22.96603 0,-1e-5 -16.63076,40.5326 -33.2646,81.17115 -6.95774,-1.73646 -14.22957,-2.66492 -21.71213,-2.66492 -49.517734,0 -89.903141,40.38538 -89.90314,89.90315 -10e-7,49.51776 40.385406,89.90465 89.90314,89.90465 49.51773,0 89.90466,-40.38689 89.90465,-89.90465 1e-5,-32.67873 -17.59169,-61.37649 -43.78679,-77.11789 l 13.11155,-32.00468 c 6.78101,13.57622 17.33371,24.71673 46.16016,66.34946 22.25426,32.1408 42.73216,61.82858 78.5697,62.9186 l 63.52137,0.0755 c 9.10473,39.98633 44.99493,69.98425 87.6703,69.98425 49.51773,0 89.90314,-40.38688 89.90314,-89.90466 0,-49.51777 -40.38541,-89.90314 -89.90314,-89.90314 -46.38396,0 -84.75469,35.43575 -89.42575,80.61975 l -60.57699,3.54114 c -21.52071,0.87176 -35.31576,-20.50072 -31.84453,-32.49717 3.00627,-10.3896 5.38462,-20.18461 2.51837,-32.31286 l -34.39615,-48.95952 c -3.80744,-4.71553 -7.61513,-5.28351 -11.42258,-6.44323 l -43.98168,-0.0468 11.22467,-27.39848 c 3.2888,-9.30473 7.23585,-12.61419 12.48463,-12.11902 h 42.94229 l 0.24626,-26.15667 z m 153.35655,65.43245 c -6.21803,2.41329 -10.66384,6.36179 -7.13515,17.22224 l 42.56614,27.55711 c 18.18168,-13.63584 37.03266,-15.89313 55.85144,-18.69822 l 74.05867,-0.24625 -0.4925,-25.83488 z m -241.73688,58.8034 c 4.44742,0 8.78866,0.43173 12.9892,1.24786 -12.54702,30.69002 -23.77444,58.21625 -24.32718,59.87448 -6.34311,20.4156 17.57293,25.58553 23.8649,10.8893 L 159.824,284.74572 c 17.96329,12.02024 29.7401,32.4947 29.7401,55.83935 0,37.21509 -29.92449,67.13956 -67.13957,67.13956 -37.215071,0 -67.139564,-29.92447 -67.139563,-67.13956 -1e-6,-37.2151 29.924491,-67.13956 67.139563,-67.13956 z m 335.15094,0.30063 c 37.21507,0 67.13956,29.92446 67.13956,67.13956 0,37.2151 -29.92449,67.13956 -67.13956,67.13956 -30.2621,0 -55.70271,-19.78758 -64.15287,-47.19198 l 84.55518,0.10122 0.40789,-35.77695 -87.11736,5.09265 c 5.06378,-32.11931 32.71354,-56.50406 66.30716,-56.50406 z"
     id="path15475"
     inkscape:connector-curvature="0" />
</svg>

<svg width="580" height="580" viewBox="0 0 580 580" fill="none" xmlns="http://www.w3.org/2000/svg">
<path d="M210.805 149.21C196.355 150.234 185.29 158.029 177.401 172.176C177.401 172.176 160.771 212.708 144.137 253.347C137.179 251.61 129.907 250.682 122.425 250.682C72.9069 250.682 32.5215 291.067 32.5215 340.585C32.5215 390.103 72.9069 430.49 122.425 430.49C171.942 430.49 212.329 390.103 212.329 340.585C212.329 307.906 194.738 279.209 168.542 263.467L181.654 231.463C188.435 245.039 198.988 256.179 227.814 297.812C250.068 329.953 270.546 359.641 306.384 360.731L369.905 360.806C379.01 400.792 414.9 430.79 457.576 430.79C507.093 430.79 547.479 390.403 547.479 340.886C547.479 291.368 507.093 250.983 457.576 250.983C411.192 250.983 372.821 286.418 368.15 331.602L307.573 335.143C286.052 336.015 272.257 314.643 275.728 302.646C278.735 292.257 281.113 282.462 278.247 270.333L243.851 221.374C240.043 216.658 236.235 216.09 232.428 214.931L188.446 214.884L199.671 187.485C202.96 178.181 206.907 174.871 212.156 175.366H255.098L255.344 149.21H210.805ZM364.161 214.642C357.943 217.055 353.498 221.004 357.026 231.864L399.592 259.422C417.774 245.786 436.625 243.528 455.444 240.723L529.503 240.477L529.01 214.642H364.161ZM122.425 273.446C126.872 273.446 131.213 273.877 135.414 274.693C122.867 305.383 111.639 332.91 111.087 334.568C104.744 354.984 128.66 360.153 134.952 345.457L159.824 284.746C177.787 296.766 189.564 317.24 189.564 340.585C189.564 377.8 159.64 407.725 122.425 407.725C85.2096 407.725 55.2851 377.8 55.2851 340.585C55.2851 303.37 85.2096 273.446 122.425 273.446V273.446ZM457.576 273.746C494.791 273.746 524.715 303.671 524.715 340.886C524.715 378.101 494.791 408.025 457.576 408.025C427.313 408.025 401.873 388.238 393.423 360.833L477.978 360.935L478.386 325.158L391.268 330.25C396.332 298.131 423.982 273.746 457.576 273.746V273.746Z" fill="white"/>
</svg>
